X:1
T:A Major                      Jeremiah Ingalls, 1805
T:Joseph Hart, 1759                   66. 86. (S. M.)
T:The General Doom
T:Transcribed from Ingalls' Christian Harmony, 1805.
%%score [ 1 2 3 ]
L:1/8
Q:1/4=80
M:4/4
K:A
V:1 treble nm="Tr." snm="Tr."
V:2 treble-8 nm="T." snm="T."
V:3 bass nm="B." snm="B."
V:1
"^1. Be – hold!  with  awful pomp  The Judge pre–pares   to        come;  Th'arch–an–gel sounds the dreadful trump, And  wakes  the  general  doom.\n2. Na – ture,  in  wild  a  – maze,  Her  dis – so  –  lu  – tion  mourns:  Blu–shes  of  blood    the  moon  de–face;     The  sun  to  dark – ness   turns.\n3. The  li–ving  look  with dread: The  frigh – ted  dead  a     –    rise;    Start  from  the  mo – nu – men – tal   bed,   And  lift  their  ghast –ly  eyes." E2 | %1
 A3 B A2 B2 | c4 A4 | d3 c de fd | c6 A2 | d3 c d2 ed | c2 c2 e2 A2 | e3 f e2 d2 | c8 |] %9
V:2
"^4. Hor–rors  all  hearts  ap – pall;  They quake, they shriek, they cry;  Bid  rocks  and  mountains  on  them fall ;   But  rocks  and  mountains  fly.\n5. Ye  will – ful,  wan–ton  fools,  Let  dan – ger  make  you      wise:  Car – nal  pro – fes – sors,  care – less  souls,   Un – close  your  la – zy   eyes.\n6. Tis  time  we   all    a  –  wake;  The  dread–ful  day    draws   near;   Sin –ners, your proud presumption check,  And  stop  your  wild  ca–reer." A2 | %1
 c3 B c2 FG | A4 e4 | f3 e fg af | e6 e2 | f3 e fg a2 | A2 A2 B2 AB | c3 B c2 FG | A8 |] %9
V:3
"^7. Now  is  th’ac–cep–ted  time; To  Christ  for  mer  –  cy           fly:    O,  turn,  re – pent,  and      trust  in   him.  And  you  shall  ne – ver       die.\n8. Great  God, in whom we live, Pre–pare   us   for        that       day:    Help  us   in   Je   –   sus        to  be – lieve,   To  watch,  and  wait,  and pray.""^__________________________________________________________________________________________________________________________________________________________\nThis tune is a precursor to \nThirtieth [Psalm] \n(possibly by Amzi or Lucius Chapin) in \nPatterson's Church Music\n, 1813, \naccording to Steel and Hulan (2010).  I consider them different tunes (Temperley, Hymn Tune Index), with slight similarity." A,2 | %1
 A,3 E, A,2 E,2 | A,,4 A,4 | D,3 C, D,2 D,2 | A,6 C2 | B,3 C B,2 A,2 | F,2 F,2 E,2 F,G, | %7
 A,3 E, A,2 E,2 | A,,8 |] %9

